other/spacepeng.svg

<?xml version="1.0" encoding="UTF-8" standalone="no"?>
<svg
   xmlns:dc="http://purl.org/dc/elements/1.1/"
   xmlns:cc="http://creativecommons.org/ns#"
   xmlns:rdf="http://www.w3.org/1999/02/22-rdf-syntax-ns#"
   xmlns:svg="http://www.w3.org/2000/svg"
   xmlns="http://www.w3.org/2000/svg"
   xmlns:sodipodi="http://sodipodi.sourceforge.net/DTD/sodipodi-0.dtd"
   xmlns:inkscape="http://www.inkscape.org/namespaces/inkscape"
   viewBox="0 0 48 48"
   version="1.1"
   id="svg2289"
   sodipodi:docname="spacepeng.svg"
   inkscape:version="1.0.1 (3bc2e813f5, 2020-09-07)">
  <metadata
     id="metadata2293">
    <rdf:RDF>
      <cc:Work
         rdf:about="">
        <dc:format>image/svg+xml</dc:format>
        <dc:type
           rdf:resource="http://purl.org/dc/dcmitype/StillImage" />
        <dc:title></dc:title>
      </cc:Work>
    </rdf:RDF>
  </metadata>
  <sodipodi:namedview
     pagecolor="#5a5a5a"
     bordercolor="#666666"
     borderopacity="1"
     objecttolerance="10"
     gridtolerance="10"
     guidetolerance="10"
     inkscape:pageopacity="0"
     inkscape:pageshadow="2"
     inkscape:window-width="3840"
     inkscape:window-height="2096"
     id="namedview2291"
     showgrid="false"
     inkscape:zoom="17.445069"
     inkscape:cx="24"
     inkscape:cy="24"
     inkscape:window-x="0"
     inkscape:window-y="27"
     inkscape:window-maximized="1"
     inkscape:current-layer="svg2289"
     inkscape:document-rotation="0"
     showguides="true"
     inkscape:guide-bbox="true" />
  <defs
     id="defs2285">
    <style
       id="style2283">.a{fill:none;stroke:#fff;stroke-linecap:round;stroke-linejoin:round;}</style>
  </defs>
  <path
     style="fill:none;stroke:#ffffff;stroke-width:1;stroke-linecap:round;stroke-linejoin:round;stroke-miterlimit:4;stroke-dasharray:none;stroke-opacity:1"
     d="m 4.5,25.897702 c 0,22.13208 39,22.140713 39,0 C 43.5,16.374399 34.830526,6.7502236 23.941866,6.7502236 12.744789,6.7502236 4.5,16.429242 4.5,25.897702 Z"
     id="path2051"
     sodipodi:nodetypes="cccc" />
  <path
     style="fill:none;stroke:#ffffff;stroke-width:1;stroke-linecap:round;stroke-linejoin:round;stroke-miterlimit:4;stroke-dasharray:none;stroke-opacity:1"
     d="m 35.145002,10.474038 0.928715,-1.36065 C 37.90825,9.409576 39.078556,7.3803763 36.796011,6.0173453 34.513465,4.6543142 33.285303,6.4977811 34.399194,8.1732506 L 33.651916,9.487776"
     id="path2053"
     sodipodi:nodetypes="cczcc" />
  <path
     style="fill:none;stroke:#ffffff;stroke-width:1;stroke-linecap:round;stroke-linejoin:round;stroke-miterlimit:4;stroke-dasharray:none;stroke-opacity:1"
     d="M 12.70691,10.430754 11.778193,9.070104 C 9.94366,9.366291 8.773355,7.3370905 11.055899,5.9740597 13.338446,4.6110285 14.566607,6.4544953 13.452717,8.129965 l 0.747277,1.314526"
     id="path2053-6"
     sodipodi:nodetypes="cczcc" />
  <ellipse
     style="fill:none;stroke:#ffffff;stroke-width:1;stroke-linecap:round;stroke-linejoin:round;stroke-miterlimit:4;stroke-dasharray:none;stroke-opacity:1"
     id="path2070"
     cx="23.917891"
     cy="22.511408"
     rx="2.6032894"
     ry="2.6137772" />
  <ellipse
     style="fill:none;stroke:#ffffff;stroke-width:1;stroke-linecap:round;stroke-linejoin:round;stroke-miterlimit:4;stroke-dasharray:none;stroke-opacity:1"
     id="path2074"
     cx="23.83499"
     cy="22.509918"
     rx="7.3406649"
     ry="7.3702374" />
  <ellipse
     style="fill:none;stroke:#ffffff;stroke-width:1;stroke-linecap:round;stroke-linejoin:round;stroke-miterlimit:4;stroke-dasharray:none;stroke-opacity:1"
     id="path2076"
     cx="23.863441"
     cy="21.847141"
     rx="8.2462053"
     ry="9.0437498" />
  <path
     style="fill:none;stroke:#ffffff;stroke-width:1;stroke-linecap:round;stroke-linejoin:round;stroke-miterlimit:4;stroke-dasharray:none;stroke-opacity:1"
     d="m 19.754711,35.350129 c 2.429817,1.597375 6.655825,1.545031 8.438139,0.05467 -1.290989,3.671573 -6.913954,3.692518 -8.438139,-0.05467 z"
     id="path2078"
     sodipodi:nodetypes="ccc" />
</svg>

<svg xmlns="http://www.w3.org/2000/svg" viewBox="0 0 48 48"><defs><style>.a{fill:none;stroke:#fff;stroke-linecap:round;stroke-linejoin:round;}</style></defs><path class="a" d="M4.5,25.9c0,22.13,39,22.14,39,0,0-9.53-8.67-19.15-19.56-19.15A19.72,19.72,0,0,0,4.5,25.9Z"/><path class="a" d="M35.15,10.47l.92-1.36c1.84.3,3-1.73.73-3.09s-3.51.48-2.4,2.15l-.75,1.32"/><path class="a" d="M12.71,10.43l-.93-1.36c-1.84.3-3-1.73-.72-3.1s3.51.48,2.39,2.16l.75,1.31"/><ellipse class="a" cx="23.92" cy="22.51" rx="2.6" ry="2.61"/><ellipse class="a" cx="23.83" cy="22.51" rx="7.34" ry="7.37"/><ellipse class="a" cx="23.86" cy="21.85" rx="8.25" ry="9.04"/><path class="a" d="M19.75,35.35c2.43,1.6,6.66,1.55,8.44,0C26.9,39.08,21.28,39.1,19.75,35.35Z"/></svg>
